images/mega/features/storage/locked_cloud.svg

<svg height="112" viewBox="0 0 112 112" width="112" xmlns="http://www.w3.org/2000/svg" xmlns:xlink="http://www.w3.org/1999/xlink"><defs><path id="a" d="m96.5517241 68c8.3798129 0 15.1606879-6.4077602 15.4482759-15 0-10.1177186-7.516547-19-17.3793103-19 0-10.1180211-7.5177156-19-17.3793104-19-3.0731631 0-7.1308824.5982659-9.6551724 2-4.1422673-9.13714008-12.8300436-15.47990915-23.1724138-16-15.3769215-.7727237-27.9164123 12.2057575-28 28s0 3.0009805 0 5c-9.30336924.6320359-16.4137931 9.2958731-16.4137931 19 .28788071 8.5922398 7.068463 15 15.4482759 15z"/><path id="b" d="m70.6796114 43.0000303h-24.3347838c-1.4931803 0-2.5496336 1.4970508-2.8965517 2.9999697-.9405078 4.0771027-4.7873372 6.9369081-8.6896552 8-1.6489573.448-2.8953827 2.233427-2.8965517 4v22c0 11.9210378 6.0227399 18.1583135 15.4482758 25l10.6206897 8 11.5862069-8c9.4243668-6.8416865 14.4827586-13.0789622 14.4827586-25v-22c0-1.7356973-.3121804-3.5468541-1.9310345-4-3.8669539-1.0842811-7.7558695-3.9489297-8.6896552-8-.3457491-1.5017081-1.4065863-2.9999697-2.8965517-2.9999697"/><mask id="c" fill="#fff"><use fill="#fff" fill-rule="evenodd" xlink:href="#a"/></mask><mask id="d" fill="#fff"><use fill="#fff" fill-rule="evenodd" xlink:href="#b"/></mask></defs><g fill="none" fill-rule="evenodd"><g transform="translate(0 -1)"><use fill="#ddebfd" xlink:href="#a"/><path d="m-20.276 1h151.586v73h-151.586z" fill="#fff" fill-opacity=".48" mask="url(#c)"/><ellipse cx="56.966" cy="85" fill="#ddebfd" mask="url(#c)" rx="51.172" ry="53"/><path d="m44.4083302-8.00008572.1927586.00479226c9.669372.48624752 18.6356474 8.60611729 24.5312468 19.38708136l.3337334.6202121.2493987-.0683475c2.2038625-.5865426 4.6704202-.9026999 7.0510374-.9399284l.4748742-.0037241c10.5537887 0 19.1471301 8.3235125 20.9099643 18.9610461l.0572081.3659539.2264947.0430932c9.8828726 1.9435765 17.2596916 11.2984115 17.4242146 22.2557489l.002808.3741579-.002319.1385812c-.354811 10.6006633-8.632575 18.6840656-18.9666064 18.8585393l-.3414195.0028795h-81.1034482c-2.1329618 0-3.862069-1.790861-3.862069-4 0-2.1421954 1.6259006-3.8910789 3.6693128-3.9951047l.1927562-.0048953h81.1034482c6.2944059 0 6.4037909-3.8066252 6.7586209-10v-1c-.154617-7.9543107-4.3664156-14.8268594-11.5862071-15l-.293436-.0035157c-2.1329618 0-3.862069-1.790861-3.862069-4 0-8.2071508-2.8756414-14.9964843-10.3272536-14.9964843-2.8201034 0-5.9220328.5654774-7.6172669 1.4131386l-.2130012.1121415c-1.9508902 1.0833261-4.3799781.2500654-5.320794-1.8252152-4.6588089-10.27654329-12.6015288-18.33956974-19.8638198-18.70477144-2.1304521-.10713488-3.7736696-1.98273868-3.670229-4.18927833.100306-2.13967481 1.8061831-3.8048344 3.8520618-3.80610085z" fill="#ddebfd" fill-rule="nonzero" mask="url(#c)"/><use fill="#00c0a6" xlink:href="#b"/><path d="m11.586 38h81.103v76h-81.103z" fill="#fff" fill-opacity=".28" mask="url(#d)"/><ellipse cx="56.483" cy="121.261" fill="#00c0a6" mask="url(#d)" rx="45.862" ry="47.5"/><path d="m57.9310345 113 11.5862069-8c9.4243668-6.8416865 14.4827586-13.0789622 14.4827586-25v-22c0-1.7356973-.3121804-3.5468541-1.9310345-4-3.8669539-1.0842811-8.7213867-7.9489297-9.6551724-12" mask="url(#d)" stroke="#00c0a6" stroke-linecap="round" stroke-linejoin="round" stroke-width="8"/></g><path d="m8.88797763 12.4064c.00587605-1.3156055-.0048967-2.92512593 0-4 .01469012-3.22546394 1.35985197-5.00841718 3.86206897-5.00002967 2.502217.00928857 3.8767591 1.77456573 3.862069 5.00002967-.0048967 1.04962253.0048967 2.8594719 0 4zm3.86206897-12.00027224c4.5482578.01778574 7.7241379 3.30847537 7.7241379 7.00027224v5h2.8965518c1.1368418.0041699 1.9363759.9358466 1.9310344 2-.0115731 5.1506357.0222561 10.8518662 0 16-.0044512 1.0658213-.7933023 2.0041699-1.9310344 2-3.0562085-.0116757-6.3178563.0074325-9.3740647-.0042431-3.7096477-.0133436-8.15766694.0184207-11.86731466.0042431-1.13684188-.0041699-1.9354857-.9350127-1.93124692-2v-15c.00466366-1.0649873.79529528-3.0041699 1.93124692-3h2.89655173v-5c0-3.69179687 3.17588014-7.0175135 7.72413793-7.00027224zm0 18.00027224c-1.0664809 0-1.9310345.8954305-1.9310345 2 0 .7401308.3881708 1.3863616.9651628 1.7322232l.0003545 2.3022596c0 .5332404.4322768.9655172.9655172.9655172s.9655172-.4322768.9655172-.9655172l.0003545-2.3022596c.576992-.3458616.9651628-.9920924.9651628-1.7322232 0-1.1045695-.8645536-2-1.9310345-2z" fill="#fff" transform="translate(44.215471 56.5936)"/></g></svg>

<svg width="112" height="112" viewBox="0 0 112 112" version="1.1" xmlns="http://www.w3.org/2000/svg" xmlns:xlink="http://www.w3.org/1999/xlink"><title>Group 8</title><defs><path d="M96.5517241,68 C104.931537,68 111.712412,61.5922398 112,53 C112,42.8822814 104.483453,34 94.6206897,34 C94.6206897,23.8819789 87.1029741,15 77.2413793,15 C74.1682162,15 70.1104969,15.5982659 67.5862069,17 C63.4439396,7.86285992 54.7561633,1.52009085 44.4137931,1 C29.0368716,0.227276299 16.4973808,13.2057575 16.4137931,29 C16.3302054,44.7942425 16.4137931,32.0009805 16.4137931,34 C7.11042386,34.6320359 -1.75626563e-12,43.2958731 -1.75626563e-12,53 C0.287880708,61.5922398 7.068463,68 15.4482759,68 L96.5517241,68 Z" id="path-1"/><path d="M70.6796114,43.0000303 L46.3448276,43.0000303 C44.8516473,43.0000303 43.795194,44.4970811 43.4482759,46 C42.5077681,50.0771027 38.6609387,52.9369081 34.7586207,54 C33.1096634,54.448 31.863238,56.233427 31.862069,58 L31.862069,80 C31.862069,91.9210378 37.8848089,98.1583135 47.3103448,105 L57.9310345,113 L69.5172414,105 C78.9416082,98.1583135 84,91.9210378 84,80 L84,58 C84,56.2643027 83.6878196,54.4531459 82.0689655,54 C78.2020116,52.9157189 74.313096,50.0510703 73.3793103,46 C73.0335612,44.4982919 71.972724,43.0000303 70.4827586,43.0000303" id="path-3"/><path d="M8.88797763,12.4064 C8.89385368,11.0907945 8.88308093,9.48127407 8.88797763,8.4064 C8.90266775,5.18093606 10.2478296,3.39798282 12.7500466,3.40637033 C15.2522636,3.4156589 16.6268057,5.18093606 16.6121156,8.4064 C16.6072189,9.45602253 16.6170123,11.2658719 16.6121156,12.4064 L8.88797763,12.4064 Z M12.7500466,0.406127763 C17.2983044,0.423913496 20.4741845,3.71460313 20.4741845,7.4064 L20.4741845,12.4064 L20.4741845,12.4064 L23.3707363,12.4064 C24.5075781,12.4105699 25.3071122,13.3422466 25.3017707,14.4064 C25.2901976,19.5570357 25.3240268,25.2582662 25.3017707,30.4064 C25.2973195,31.4722213 24.5084684,32.4105699 23.3707363,32.4064 C20.3145278,32.3947243 17.05288,32.4138325 13.9966716,32.4021569 C10.2870239,32.3888133 5.83900466,32.4205776 2.12935694,32.4064 C0.992515057,32.4022301 0.193871239,31.4713873 0.198110015,30.4064 L0.198110015,15.4064 C0.202773681,14.3414127 0.993405301,12.4022301 2.12935694,12.4064 L5.02590867,12.4064 L5.02590867,7.4064 C5.02590867,3.71460313 8.20178881,0.388886504 12.7500466,0.406127763 Z M12.7500466,18.4064 C11.6835657,18.4064 10.8190121,19.3018305 10.8190121,20.4064 C10.8190121,21.1465308 11.2071829,21.7927616 11.7841749,22.1386232 L11.7841749,22.1386232 L11.7845294,24.4408828 C11.7845294,24.9741232 12.2168062,25.4064 12.7500466,25.4064 C13.283287,25.4064 13.7155638,24.9741232 13.7155638,24.4408828 L13.7155638,24.4408828 L13.7159183,22.1386232 C14.2929103,21.7927616 14.6810811,21.1465308 14.6810811,20.4064 C14.6810811,19.3018305 13.8165275,18.4064 12.7500466,18.4064 Z" id="path-5"/></defs><g id="Features" stroke="none" stroke-width="1" fill="none" fill-rule="evenodd"><g id="01-cloud-storage-transfer" transform="translate(-662.000000, -898.000000)"><g id="Group-8" transform="translate(662.000000, 897.000000)"><g id="Group-20-Copy"><mask id="mask-2" fill="#fff"><use xlink:href="#path-1"/></mask><use id="Fill-1" fill="#DDEBFD" xlink:href="#path-1"/><rect id="Rectangle" fill-opacity=".48" fill="#FFF" style="mix-blend-mode:overlay" mask="url(#mask-2)" x="-20.276" y="1" width="151.586" height="73"/><ellipse id="Oval" fill="#DDEBFD" mask="url(#mask-2)" cx="56.966" cy="85" rx="51.172" ry="53"/><path d="M44.4083302,-8.00008572 L44.6010888,-7.99529346 C54.2704608,-7.50904594 63.2367362,0.61082383 69.1323356,11.3917879 L69.466069,12.012 L69.7154677,11.9436525 C71.9193302,11.3571099 74.3858879,11.0409526 76.7665051,11.0037241 L77.2413793,11 C87.795168,11 96.3885094,19.3235125 98.1513436,29.9610461 L98.2085517,30.327 L98.4350464,30.3700932 C108.317919,32.3136697 115.694738,41.6685047 115.859261,52.6258421 L115.862069,53 L115.85975,53.1385812 C115.504939,63.7392445 107.227175,71.8226468 96.8931436,71.9971205 L96.5517241,72 L15.4482759,72 C13.3153141,72 11.5862069,70.209139 11.5862069,68 C11.5862069,65.8578046 13.2121075,64.1089211 15.2555197,64.0048953 L15.4482759,64 L96.5517241,64 C102.84613,64 102.955515,60.1933748 103.310345,54 L103.310345,53 C103.155728,45.0456893 98.9439294,38.1731406 91.7241379,38 L91.4307019,37.9964843 C89.2977401,37.9964843 87.5686329,36.2056233 87.5686329,33.9964843 C87.5686329,25.7893335 84.6929915,19 77.2413793,19 C74.4212759,19 71.3193465,19.5654774 69.6241124,20.4131386 L69.4111112,20.5252801 C67.460221,21.6086062 65.0311331,20.7753455 64.0903172,18.7000649 C59.4315083,8.42352161 51.4887884,0.360495164 44.2264974,-0.00470653514 C42.0960453,-0.11184142 40.4528278,-1.98744522 40.5562684,-4.19398487 C40.6565744,-6.33365968 42.3624515,-7.99881927 44.4083302,-8.00008572 Z" id="Path" fill="#DDEBFD" fill-rule="nonzero" mask="url(#mask-2)"/><mask id="mask-4" fill="#fff"><use xlink:href="#path-3"/></mask><use id="Fill-7" fill="#00C0A6" xlink:href="#path-3"/><rect id="Rectangle" fill-opacity=".28" fill="#FFF" style="mix-blend-mode:soft-light" mask="url(#mask-4)" x="11.586" y="38" width="81.103" height="76"/><ellipse id="Oval" fill="#00C0A6" mask="url(#mask-4)" cx="56.483" cy="121.261" rx="45.862" ry="47.5"/><path d="M57.9310345,113 L69.5172414,105 C78.9416082,98.1583135 84,91.9210378 84,80 L84,58 C84,56.2643027 83.6878196,54.4531459 82.0689655,54 C78.2020116,52.9157189 73.3475788,46.0510703 72.4137931,42" id="Shape" stroke="#00C0A6" stroke-width="8" stroke-linecap="round" stroke-linejoin="round" mask="url(#mask-4)"/></g><g id="Group-5-Copy" transform="translate(44.215471, 57.593600)"><mask id="mask-6" fill="#fff"><use xlink:href="#path-5"/></mask><use id="Fill-183" fill="#FFF" xlink:href="#path-5"/></g></g></g></g></svg>
